**kern	**kern	**dynam
*part1	*part1	*part1
*staff2	*staff1	*
*I"Piano	*	*
*clefF4	*clefG2	*
*k[b-e-]	*k[b-e-]	*
=1	=1	=1
(4B- 4d	12r	p
.	12b-L 12dd	.
.	12fJ	.
4F 4c	12r	.
.	12aL 12cc	.
.	12fJ	.
=	=	=
4D 4B-	12r	.
.	12b-L	.
.	12fJ	.
4C) 4A	12r	.
.	12aL	.
.	12fJ	.
=	=	=
(4D 4B-	12r	.
.	12b-L	.
.	12fJ	.
4E- 4G	12r	.
.	12gL 12cc	.
.	12cJ	.
=	=	=
4F) 4A	12r	.
.	12fL 12a	.
.	12cJ	.
4F 4A	12r	.
.	12fL 12a	.
.	12cJ	.
=	=	=
4c 4e-	12r	.
.	12ccL 12ee-	.
.	12gJ	.
4G 4d	12r	.
.	12bnL 12dd	.
.	12gJ	.
=	=	=
4E- 4c	12r	.
.	12ccL	.
.	12gJ	.
4En 4G	12r	.
.	12gL	.
.	12cJ	.
=	=	=
4F	12r	.
.	12dL 12b-	.
.	12fJ	.
4F 4c	12r	.
.	12aL 12cc	.
.	12fJ	.
=	=	=
*-	*-	*-
!!!system-decoration: {(s1,s2)}
